apps/scalable/yast-timezone.svg

<svg height="48" width="48" xmlns="http://www.w3.org/2000/svg" xmlns:xlink="http://www.w3.org/1999/xlink"><linearGradient gradientUnits="userSpaceOnUse" x1="0" x2="47" y1="23.5" y2="23.5"><stop offset="0" stop-color="#a9a3d4"/><stop offset=".47001833" stop-color="#87baff"/><stop offset="1" stop-color="#89ec85"/></linearGradient><linearGradient id="a"><stop offset="0" stop-color="#2a2c2f"/><stop offset="1" stop-color="#424649"/></linearGradient><linearGradient id="b" gradientUnits="userSpaceOnUse" x1="17.352557446172" x2="17.352557446172" xlink:href="#a" y1="1046.007253349718" y2="1007.673870149718"/><linearGradient id="c" gradientUnits="userSpaceOnUse" x1="16.790719092714" x2="17.167744648812" y1="1046.03944165864" y2="1007.80860540239"><stop offset="0" stop-color="#5fd38d"/><stop offset="1" stop-color="#5fd38d"/></linearGradient><linearGradient id="d" gradientUnits="userSpaceOnUse" x1="17.352557446172" x2="17.352557446172" y1="1046.007253349718" y2="1007.673870149718"><stop offset="0" stop-color="#37c871"/><stop offset="1" stop-color="#5fd38d"/></linearGradient><clipPath id="e"><rect height="46" ry="23" width="46" x="1" y=".999947"/></clipPath><linearGradient id="f" gradientUnits="userSpaceOnUse" x1="23.999926661144" x2="23.999926661144" xlink:href="#a" y1="46.999978036636" y2=".999931636636"/><g stroke-width="1.317422" transform="matrix(1.199999650171 0 0 1.199999650171 3.176860870631 -1208.208316863007)"><rect fill="url(#b)" height="38.333344" ry="19.166672" width="38.333344" x="-1.814052" y="1007.6739"/><path clip-path="url(#e)" d="m27.705078 8.5175781c.206545.20652.311423.5044601.261719.8125l-2.111328 13.1093749c.30767.40116.506808.881523.570312 1.408203l353.554689 353.552734c-.06349-.52668-.2646-1.00704-.57227-1.4082l.08399-.51953 7.57422 7.57422c.02904.02279.05635.04901.08203.07421l-7.65625-7.65625 2.02929-12.58007c.04971-.30816-.05716-.60794-.26367-.81446zm-6.191406 17.7246099 353.554688 353.554692c.52471.52463 1.2479.8496 2.04687.8496.29786 0 .57906-.05857.84961-.14257l8.04102 4.17773-79.3457-79.34375c.33751.15767.74263.04759.94726-.26758l-274.121092-274.121091c-.205084.316221-.611272.424885-.949219.265625l-.085937-.085938-8.039063-4.177734c-.270549.08304-.551758.140625-.849609.140625-.798979 0-1.524108-.32497-2.048828-.849609z" fill-opacity=".078431" transform="matrix(.83333358 0 0 .83333358 -2.647385 1006.8406)"/><rect fill="none" height="38.333344" ry="19.166672" stroke="url(#d)" stroke-width="1.666667" width="38.333344" x="-1.814052" y="1007.6739"/><path d="m19.410047 1026.8589c-.05292-.4389-.219708-.8392-.4761-1.1735l1.760267-10.9244c.06558-.4064-.195233-.794-.596317-.8866h-.01975c-.401075-.093-.805267.1415-.924617.5355l-3.206742 10.5902c-.790267.3974-1.338851 1.2074-1.338851 2.1507 0 1.3321 1.083184 2.4159 2.415151 2.4159.248209 0 .482925-.049.708384-.1182l6.69926 3.4814c.368583.1915.822275.072 1.048459-.2765l.0096-.015c.22625-.3483.151033-.8115-.174033-1.0702zm-3.579826.2875c0-.6578.535325-1.1931 1.193009-1.1931.658283 0 1.193592.5353 1.193592 1.1931 0 .6581-.535309 1.1935-1.193592 1.1935-.657684 0-1.193009-.5353-1.193009-1.1935z" fill="url(#c)"/></g></svg>

<?xml version="1.0" encoding="UTF-8" standalone="no"?>
<!-- Created with Inkscape (http://www.inkscape.org/) -->

<svg
   xmlns:dc="http://purl.org/dc/elements/1.1/"
   xmlns:cc="http://creativecommons.org/ns#"
   xmlns:rdf="http://www.w3.org/1999/02/22-rdf-syntax-ns#"
   xmlns:svg="http://www.w3.org/2000/svg"
   xmlns="http://www.w3.org/2000/svg"
   xmlns:xlink="http://www.w3.org/1999/xlink"
   xmlns:sodipodi="http://sodipodi.sourceforge.net/DTD/sodipodi-0.dtd"
   xmlns:inkscape="http://www.inkscape.org/namespaces/inkscape"
   width="48"
   height="48"
   id="svg5453"
   version="1.1"
   inkscape:version="0.91 r13725"
   sodipodi:docname="yast-timezone.svg">
  <defs
     id="defs5455">
    <linearGradient
       inkscape:collect="always"
       id="linearGradient4228">
      <stop
         style="stop-color:#37c871;stop-opacity:1"
         offset="0"
         id="stop4230" />
      <stop
         style="stop-color:#5fd38d;stop-opacity:1"
         offset="1"
         id="stop4232" />
    </linearGradient>
    <linearGradient
       id="linearGradient8311-06">
      <stop
         id="stop8313-6"
         style="stop-color:#a9a3d4;stop-opacity:1"
         offset="0" />
      <stop
         offset="0.47001833"
         style="stop-color:#87baff;stop-opacity:1"
         id="stop4462" />
      <stop
         id="stop8315-2"
         style="stop-color:#89ec85;stop-opacity:1"
         offset="1" />
    </linearGradient>
    <linearGradient
       gradientUnits="userSpaceOnUse"
       y2="23.5"
       x2="47"
       y1="23.5"
       x1="0"
       id="linearGradient4460"
       xlink:href="#linearGradient8311-06"
       inkscape:collect="always" />
    <linearGradient
       id="linearGradient4822"
       inkscape:collect="always">
      <stop
         id="stop4824"
         offset="0"
         style="stop-color:#5fd38d;stop-opacity:1" />
      <stop
         id="stop4826"
         offset="1"
         style="stop-color:#5fd38d;stop-opacity:1" />
    </linearGradient>
    <linearGradient
       inkscape:collect="always"
       id="linearGradient4159">
      <stop
         style="stop-color:#2a2c2f;stop-opacity:1"
         offset="0"
         id="stop4161" />
      <stop
         style="stop-color:#424649;stop-opacity:1"
         offset="1"
         id="stop4163" />
    </linearGradient>
    <linearGradient
       inkscape:collect="always"
       xlink:href="#linearGradient4159"
       id="linearGradient4224-0"
       gradientUnits="userSpaceOnUse"
       gradientTransform="matrix(1.3690494,0,0,1.3690494,-531.04945,298.78287)"
       x1="400.57138"
       y1="545.79797"
       x2="400.57138"
       y2="517.79797" />
    <linearGradient
       inkscape:collect="always"
       xlink:href="#linearGradient4822"
       id="linearGradient4278-3"
       x1="435.80054"
       y1="567.9704"
       x2="436.48532"
       y2="498.5329"
       gradientUnits="userSpaceOnUse"
       gradientTransform="matrix(0.5505791,0,0,0.5505791,-223.15195,733.32681)" />
    <linearGradient
       inkscape:collect="always"
       xlink:href="#linearGradient4228"
       id="linearGradient4170"
       gradientUnits="userSpaceOnUse"
       gradientTransform="matrix(1.3690494,0,0,1.3690494,-531.04945,298.78287)"
       x1="400.57138"
       y1="545.79797"
       x2="400.57138"
       y2="517.79797" />
    <clipPath
       id="clipPath4436"
       clipPathUnits="userSpaceOnUse">
      <rect
         style="opacity:1;fill:url(#linearGradient4440);fill-opacity:1;stroke:none"
         id="rect4438"
         width="44"
         height="44"
         x="426.29868"
         y="453.23608"
         ry="22" />
    </clipPath>
    <linearGradient
       y2="517.79797"
       x2="400.57138"
       y1="545.79797"
       x1="400.57138"
       gradientTransform="matrix(1.5714302,0,0,1.5714302,-181.17136,-360.44722)"
       gradientUnits="userSpaceOnUse"
       id="linearGradient4440"
       xlink:href="#linearGradient4159"
       inkscape:collect="always" />
    <clipPath
       clipPathUnits="userSpaceOnUse"
       id="clipPath4222">
      <rect
         style="opacity:1;fill:url(#linearGradient4226);fill-opacity:1;stroke:none"
         id="rect4224"
         width="46"
         height="46"
         x="0.99999976"
         y="0.99994671"
         ry="23" />
    </clipPath>
    <linearGradient
       inkscape:collect="always"
       xlink:href="#linearGradient4159"
       id="linearGradient4226"
       gradientUnits="userSpaceOnUse"
       gradientTransform="matrix(1.6428588,0,0,1.6428588,-634.08229,-849.66902)"
       x1="400.57138"
       y1="545.79797"
       x2="400.57138"
       y2="517.79797" />
  </defs>
  <sodipodi:namedview
     id="base"
     pagecolor="#5a5a5a"
     bordercolor="#666666"
     borderopacity="1.0"
     inkscape:pageopacity="0"
     inkscape:pageshadow="2"
     inkscape:zoom="6.3073925"
     inkscape:cx="30.156721"
     inkscape:cy="18.898936"
     inkscape:document-units="px"
     inkscape:current-layer="g4312"
     showgrid="false"
     fit-margin-top="0"
     fit-margin-left="0"
     fit-margin-right="0"
     fit-margin-bottom="0"
     inkscape:window-width="1440"
     inkscape:window-height="840"
     inkscape:window-x="0"
     inkscape:window-y="32"
     inkscape:window-maximized="1"
     inkscape:showpageshadow="false"
     borderlayer="true"
     showguides="false"
     showborder="false">
    <inkscape:grid
       type="xygrid"
       id="grid4063" />
    <sodipodi:guide
       position="1.1650391e-05,47.999996"
       orientation="4,0"
       id="guide4146" />
    <sodipodi:guide
       position="1.1650391e-05,43.999996"
       orientation="0,48"
       id="guide4148" />
    <sodipodi:guide
       position="48.000012,43.999996"
       orientation="-4,0"
       id="guide4150" />
    <sodipodi:guide
       position="48.000012,47.999996"
       orientation="0,-48"
       id="guide4152" />
    <sodipodi:guide
       position="1.1650391e-05,4.0000264"
       orientation="4,0"
       id="guide4154" />
    <sodipodi:guide
       position="1.1650391e-05,2.6367188e-05"
       orientation="0,48"
       id="guide4156" />
    <sodipodi:guide
       position="48.000012,2.6367188e-05"
       orientation="-4,0"
       id="guide4158" />
    <sodipodi:guide
       position="48.000012,4.0000264"
       orientation="0,-48"
       id="guide4160" />
    <sodipodi:guide
       position="48.000012,48.000026"
       orientation="0,-4"
       id="guide4162" />
    <sodipodi:guide
       position="44.000012,48.000026"
       orientation="48,0"
       id="guide4164" />
    <sodipodi:guide
       position="44.000012,2.6367188e-05"
       orientation="0,4"
       id="guide4166" />
    <sodipodi:guide
       position="48.000012,2.6367188e-05"
       orientation="-48,0"
       id="guide4168" />
    <sodipodi:guide
       position="4.0000422,48.000026"
       orientation="0,-4"
       id="guide4170" />
    <sodipodi:guide
       position="4.2167969e-05,48.000026"
       orientation="48,0"
       id="guide4172" />
    <sodipodi:guide
       position="4.2167969e-05,2.6367188e-05"
       orientation="0,4"
       id="guide4174" />
    <sodipodi:guide
       position="4.0000422,2.6367188e-05"
       orientation="-48,0"
       id="guide4176" />
    <sodipodi:guide
       position="20,30"
       orientation="39.999969,0"
       id="guide4153" />
    <sodipodi:guide
       position="20.000012,4.0000264"
       orientation="0,8"
       id="guide4155" />
    <sodipodi:guide
       position="25,30"
       orientation="-39.999969,0"
       id="guide4157" />
    <sodipodi:guide
       position="28.000012,43.999996"
       orientation="0,-8"
       id="guide4159" />
    <sodipodi:guide
       position="22,11"
       orientation="5,0"
       id="guide4342" />
  </sodipodi:namedview>
  <metadata
     id="metadata5458">
    <rdf:RDF>
      <cc:Work
         rdf:about="">
        <dc:format>image/svg+xml</dc:format>
        <dc:type
           rdf:resource="http://purl.org/dc/dcmitype/StillImage" />
        <dc:title />
      </cc:Work>
    </rdf:RDF>
  </metadata>
  <g
     inkscape:label="Layer 1"
     inkscape:groupmode="layer"
     id="layer1"
     transform="translate(-384.57143,-499.798)">
    <g
       transform="translate(392.24401,-502.51656)"
       id="layer1-4"
       inkscape:label="Layer 1">
      <g
         transform="matrix(1.138587,0,0,1.138587,-3.4562036,-142.80276)"
         id="g4413"
         style="stroke-width:1.31742239;stroke-miterlimit:4;stroke-dasharray:none">
        <g
           id="g4312"
           transform="matrix(1.0539376,0,0,1.0539376,-0.91298719,-55.411661)">
          <rect
             ry="19.166672"
             y="1007.6739"
             x="-1.8140516"
             height="38.333344"
             width="38.333344"
             id="rect4222-5"
             style="opacity:1;fill:url(#linearGradient4224-0);fill-opacity:1;stroke:none" />
          <path
             style="fill:#000000;fill-opacity:0.07843137"
             d="M 27.705078 8.5175781 C 27.911623 8.7240981 28.016501 9.0220382 27.966797 9.3300781 L 25.855469 22.439453 C 26.163139 22.840613 26.362277 23.320976 26.425781 23.847656 L 379.98047 377.40039 C 379.91698 376.87371 379.71587 376.39335 379.4082 375.99219 L 379.49219 375.47266 L 387.06641 383.04688 C 387.09545 383.06967 387.12276 383.09589 387.14844 383.12109 L 379.49219 375.46484 L 381.52148 362.88477 C 381.57119 362.57661 381.46432 362.27683 381.25781 362.07031 L 27.705078 8.5175781 z M 21.513672 26.242188 L 375.06836 379.79688 C 375.59307 380.32151 376.31626 380.64648 377.11523 380.64648 C 377.41309 380.64648 377.69429 380.58791 377.96484 380.50391 L 386.00586 384.68164 L 306.66016 305.33789 C 306.99767 305.49556 307.40279 305.38548 307.60742 305.07031 L 33.486328 30.949219 C 33.281244 31.26544 32.875056 31.374104 32.537109 31.214844 L 32.451172 31.128906 L 24.412109 26.951172 C 24.14156 27.034212 23.860351 27.091797 23.5625 27.091797 C 22.763521 27.091797 22.038392 26.766827 21.513672 26.242188 z "
             transform="matrix(0.83333358,0,0,0.83333358,-2.647385,1006.8406)"
             id="path4217"
             clip-path="url(#clipPath4222)" />
          <rect
             style="opacity:1;fill:none;fill-opacity:1;stroke:url(#linearGradient4170);stroke-width:1.6666671;stroke-miterlimit:4;stroke-dasharray:none"
             id="rect4168"
             width="38.333344"
             height="38.333344"
             x="-1.8140516"
             y="1007.6739"
             ry="19.166672" />
          <path
             style="fill:url(#linearGradient4278-3);fill-opacity:1"
             sodipodi:nodetypes="cccccccssccccccsssss"
             inkscape:connector-curvature="0"
             id="path5-5"
             d="m 19.410047,1026.8589 c -0.05292,-0.4389 -0.219708,-0.8392 -0.4761,-1.1735 l 1.760267,-10.9244 c 0.06558,-0.4064 -0.195233,-0.794 -0.596317,-0.8866 l -0.01975,0 c -0.401075,-0.093 -0.805267,0.1415 -0.924617,0.5355 l -3.206742,10.5902 c -0.790267,0.3974 -1.338851,1.2074 -1.338851,2.1507 0,1.3321 1.083184,2.4159 2.415151,2.4159 0.248209,0 0.482925,-0.049 0.708384,-0.1182 l 6.69926,3.4814 c 0.368583,0.1915 0.822275,0.072 1.048459,-0.2765 l 0.0096,-0.015 c 0.22625,-0.3483 0.151033,-0.8115 -0.174033,-1.0702 z m -3.579826,0.2875 c 0,-0.6578 0.535325,-1.1931 1.193009,-1.1931 0.658283,0 1.193592,0.5353 1.193592,1.1931 0,0.6581 -0.535309,1.1935 -1.193592,1.1935 -0.657684,0 -1.193009,-0.5353 -1.193009,-1.1935 z" />
        </g>
      </g>
      <g
         style="fill:url(#linearGradient4460);fill-opacity:1"
         transform="matrix(0.48796879,0,0,0.48796879,21.356721,1026.8977)"
         id="g3" />
    </g>
  </g>
</svg>
